ids-wordpress/site-IdS/assets/images/projetos/icones-ferramentasetec/Tailwind.svg

<svg width="37" height="36" viewBox="0 0 37 36" fill="none" xmlns="http://www.w3.org/2000/svg">
<g clip-path="url(#clip0_694_1639)">
<path d="M17.609 0.464042C29.8892 -0.200644 39.1124 11.1777 35.6367 23.0329C31.7957 36.1338 14.6877 39.8759 5.51528 29.8041C-4.49306 18.8152 2.84385 1.26319 17.609 0.464042ZM17.5443 1.48771C4.71741 2.25768 -2.57892 16.9899 5.01677 27.5487C13.5207 39.3723 32.3044 35.4514 35.024 21.0731C37.0561 10.3265 28.3873 0.838245 17.5443 1.48771Z" fill="#F75705"/>
<path d="M18.1864 9.94074C19.2748 9.86463 20.6346 10.1602 21.6177 10.6333C24.0773 11.8181 25.9026 15.4853 29.1296 13.7094C29.5127 13.4988 30.0886 12.8291 30.4983 12.9585C31.1909 13.1766 30.6823 14.2257 30.4666 14.662C28.8937 17.8421 25.177 19.1411 21.9335 17.6798C19.3522 16.5166 17.6765 13.0282 14.2731 14.3538C13.8102 14.5339 13.3091 15.0819 12.7992 14.9665C12.1104 14.8105 12.7954 13.5064 12.9983 13.1437C14.0715 11.2295 16.0034 10.0942 18.1839 9.94074H18.1864ZM29.0878 14.8523C28.0172 15.2709 26.8933 15.2684 25.8062 14.8992C24.0303 14.2954 23.0523 12.6616 21.4452 11.7674C18.8486 10.3213 16.0173 10.8452 14.2288 13.2198C14.5256 13.2578 14.8021 13.0878 15.0939 13.0599C19.2418 12.6553 20.4507 16.9555 24.317 17.2206C26.3174 17.3576 27.9842 16.4975 29.0878 14.8536V14.8523Z" fill="#F75705"/>
<path d="M12.1015 17.1115C13.7493 17.0176 15.4605 17.5796 16.7848 18.5385C18.7877 19.991 20.0257 22.2209 22.8976 20.9246C23.4062 20.695 24.8308 19.5356 24.7318 20.9005C24.6582 21.9076 23.41 23.5008 22.6134 24.097C20.6473 25.5685 18.3234 25.7841 16.063 24.8302C13.5412 23.766 11.3265 19.7398 8.18824 21.522C7.76583 21.7618 7.01996 22.599 6.56965 22.0269C6.26775 21.6438 6.8614 20.5542 7.09227 20.1698C8.10071 18.4827 10.1239 17.2231 12.1015 17.1102V17.1115ZM23.0663 22.0878C22.6464 22.1537 22.2354 22.3009 21.8092 22.3351C18.364 22.6116 17.3036 19.4049 14.4698 18.484C12.1548 17.7318 9.85376 18.3698 8.33538 20.2637C8.3227 20.4298 8.36075 20.3322 8.44574 20.3093C12.8486 19.1728 13.663 23.081 17.0613 24.0894C19.4105 24.7871 21.6532 24.0882 23.0663 22.0878Z" fill="#F75705"/>
</g>
<defs>
<clipPath id="clip0_694_1639">
<rect width="35.4668" height="35.1129" fill="white" transform="translate(0.910919 0.436035)"/>
</clipPath>
</defs>
</svg>

<svg xmlns="http://www.w3.org/2000/svg" width="37" height="36" fill="none"><g fill="#F75705" clip-path="url(#a)"><path d="M17.609.464c12.28-.665 21.503 10.714 18.028 22.569-3.841 13.1-20.95 16.843-30.122 6.771C-4.493 18.815 2.844 1.264 17.61.464Zm-.065 1.024C4.717 2.258-2.579 16.99 5.017 27.548c8.504 11.824 27.287 7.903 30.007-6.475C37.056 10.326 28.387.838 17.544 1.488Z"/><path d="M18.186 9.94c1.089-.075 2.449.22 3.432.693 2.46 1.185 4.285 4.852 7.512 3.076.383-.21.959-.88 1.368-.75.693.218.184 1.267-.031 1.703-1.573 3.18-5.29 4.48-8.534 3.018-2.58-1.163-4.256-4.652-7.66-3.326-.463.18-.964.728-1.474.613-.689-.157-.004-1.46.2-1.823 1.072-1.915 3.004-3.05 5.185-3.203h.002Zm10.902 4.912c-1.07.419-2.195.416-3.282.047-1.776-.604-2.754-2.237-4.36-3.132-2.597-1.446-5.429-.922-7.217 1.453.297.038.573-.132.865-.16 4.148-.405 5.357 3.896 9.223 4.16 2 .138 3.667-.723 4.77-2.366v-.002ZM12.101 17.111c1.648-.093 3.36.469 4.684 1.427 2.003 1.453 3.24 3.683 6.113 2.387.508-.23 1.933-1.39 1.834-.024-.074 1.007-1.322 2.6-2.119 3.196-1.966 1.471-4.29 1.687-6.55.733-2.522-1.064-4.736-5.09-7.875-3.308-.422.24-1.168 1.077-1.618.505-.302-.383.291-1.473.522-1.857 1.009-1.687 3.032-2.947 5.01-3.06v.002Zm10.965 4.977c-.42.066-.83.213-1.257.247-3.445.277-4.505-2.93-7.34-3.851-2.314-.752-4.615-.114-6.134 1.78-.012.166.026.068.11.045 4.404-1.136 5.218 2.772 8.616 3.78 2.35.698 4.592 0 6.005-2.001Z"/></g><defs><clipPath id="a"><path fill="#fff" d="M.91.436h35.468v35.113H.91z"/></clipPath></defs></svg>
